X:0181
T:The Wrights Rant.
T:The Stool of Repentance
N:the g natural in bar 4 is the way Aird has it
M:6/8
L:1/8
Q:3/8=120
I: :: ::
Z:Jack Campin * www.campin.me.uk * 2009
K:A Mixolydian
cAA  eAA          |cAA Te2c|dBB  fBB          | gBB      Te2d |
cAA  eAA          |cAA Te2c|def  efg          | f/^g/ac   B2A:|
cAA (f/g/a/g/f/e/)|cAA Te2c|dBB (f/g/a/g/f/e/)| aBB      Te2d |
cAA (f/g/a/g/f/e/)|cAA  e2c|def  efg          |(f/^g/a)c TB2A:|
<end>
<start>
